src/assets/flags/cx.svg

<?xml version="1.0" encoding="UTF-8"?>
<svg xmlns="http://www.w3.org/2000/svg" xmlns:xlink="http://www.w3.org/1999/xlink" width="25px" height="px" viewBox="0 0 25 19" version="1.1">
<g id="surface1">
<rect x="0" y="0" width="25" height="19" style="fill:rgb(0%,12.941177%,67.843139%);fill-opacity:1;stroke:none;"/>
<path style=" stroke:none;fill-rule:nonzero;fill:rgb(10.980392%,54.11765%,25.882354%);fill-opacity:1;" d="M 0 0 L 25 0 L 25 19 Z M 0 0 "/>
<path style=" stroke:none;fill-rule:nonzero;fill:rgb(100%,77.64706%,22.352941%);fill-opacity:1;" d="M 14.757812 9.5 C 14.757812 8.238281 13.746094 7.210938 12.5 7.210938 C 11.253906 7.210938 10.242188 8.238281 10.242188 9.5 C 10.242188 10.761719 11.253906 11.789062 12.5 11.789062 C 13.746094 11.789062 14.757812 10.761719 14.757812 9.5 Z M 14.757812 9.5 "/>
<path style=" stroke:none;fill-rule:nonzero;fill:rgb(10.980392%,54.11765%,25.882354%);fill-opacity:1;" d="M 11.121094 8.472656 C 11.277344 8.6875 11.511719 9.046875 11.699219 8.953125 C 11.84375 8.953125 11.921875 8.964844 11.941406 9.066406 C 12.4375 9.113281 12.925781 8.898438 13.230469 8.5 C 13.230469 8.5 13.261719 8.5 13.25 8.320312 C 13.25 8.242188 13.359375 8.257812 13.359375 8.28125 C 13.375 8.320312 13.375 8.347656 13.394531 8.351562 C 13.433594 8.335938 13.5 8.234375 13.550781 8.171875 C 13.558594 8.144531 13.5625 8.113281 13.558594 8.074219 C 13.585938 8.007812 13.652344 8.023438 13.667969 8.058594 L 13.691406 8.121094 C 13.761719 8.171875 13.886719 8.121094 13.894531 8.121094 C 13.90625 8.066406 13.941406 8.074219 13.941406 8.074219 C 13.988281 8.0625 13.96875 8.066406 14 8.082031 C 13.972656 8.386719 14.058594 8.398438 14.050781 8.558594 C 14.054688 8.730469 14 8.78125 14 8.847656 C 14.015625 8.925781 14.273438 8.929688 14.179688 9 C 14.101562 9.039062 14.179688 9.121094 14.0625 9.152344 C 13.71875 9.328125 13.65625 9.480469 13.65625 9.480469 C 13.65625 9.480469 13.570312 9.644531 13.558594 9.644531 C 13.5 9.757812 13.429688 9.695312 13.386719 9.75 C 13.367188 9.816406 13.347656 9.96875 13.386719 10.042969 C 13.40625 10.148438 13.386719 10.207031 13.359375 10.316406 C 13.335938 10.535156 13.25 10.574219 13.238281 10.648438 C 13.199219 10.734375 13.246094 11.121094 13.207031 11.121094 C 12.953125 11.128906 12.757812 11.074219 12.65625 11.054688 C 12.753906 10.625 12.714844 10.25 12.714844 10.207031 C 12.691406 9.898438 12.261719 9.976562 12.195312 9.929688 C 12.140625 9.921875 12.105469 9.878906 12.089844 9.859375 C 12.027344 9.851562 12.003906 9.835938 11.945312 9.832031 C 11.914062 9.847656 11.933594 9.863281 11.867188 9.882812 C 11.691406 9.902344 11.617188 9.734375 11.617188 9.734375 C 11.625 9.675781 11.230469 9.746094 11.019531 9.695312 C 10.929688 9.746094 10.890625 9.890625 10.820312 9.90625 C 10.820312 9.953125 10.703125 9.867188 10.679688 9.828125 C 10.671875 9.695312 10.789062 9.636719 10.789062 9.636719 C 10.882812 9.570312 10.9375 9.558594 10.984375 9.515625 C 11.003906 9.402344 10.992188 9.316406 11.042969 9.234375 C 11.082031 9.167969 11.140625 9.195312 11.179688 9.171875 C 11.222656 9.140625 11.242188 8.949219 11.203125 8.894531 L 11.019531 8.726562 C 10.964844 8.566406 11.085938 8.457031 11.121094 8.472656 "/>
<path style=" stroke:none;fill-rule:nonzero;fill:rgb(100%,77.64706%,22.352941%);fill-opacity:1;" d="M 21.949219 5.636719 C 21.847656 5.230469 20.933594 4.34375 20.242188 3.78125 C 20.078125 3.667969 19.96875 3.738281 19.992188 3.898438 C 20.078125 4.042969 20.140625 4.199219 20.226562 4.347656 C 20.25 4.445312 20.296875 4.511719 20.320312 4.609375 C 20.320312 4.609375 20.328125 4.773438 20.34375 4.789062 C 20.554688 5.027344 20.585938 5.230469 20.585938 5.230469 C 20.695312 5.464844 20.847656 5.671875 21.035156 5.847656 C 21.277344 6 21.097656 6.480469 21.105469 6.738281 C 21.105469 6.894531 20.992188 6.878906 20.890625 6.855469 C 20.105469 6.125 19.324219 6.125 18.632812 5.910156 C 18.367188 5.882812 18.359375 6.011719 18.449219 6.082031 C 18.878906 6.570312 19.398438 6.96875 19.976562 7.253906 L 20.277344 7.445312 L 20.621094 7.734375 C 20.886719 7.910156 20.90625 8.066406 20.90625 8.082031 C 20.914062 8.40625 20.742188 8.660156 20.691406 8.765625 C 20.601562 9.109375 20.417969 9.167969 20.417969 9.167969 C 18.949219 10.171875 18.175781 10.433594 15.792969 10.121094 C 15.753906 10.105469 15.527344 10.140625 15.792969 10.238281 C 16.398438 10.445312 17.890625 10.773438 19.332031 10.082031 C 19.683594 9.835938 19.910156 9.914062 20.164062 9.765625 C 20.519531 9.542969 20.890625 9.335938 21.269531 9.15625 C 21.59375 8.976562 22.492188 8.785156 22.699219 8.609375 C 22.9375 8.589844 23.183594 8.558594 23.199219 8.351562 C 23.277344 8.300781 23.394531 8.339844 23.480469 8.171875 C 23.667969 8.132812 23.636719 8.066406 23.636719 8.066406 C 23.589844 7.933594 23.410156 7.878906 23.285156 7.777344 C 23.097656 7.714844 22.972656 7.699219 22.835938 7.761719 L 22.707031 7.820312 C 22.707031 7.820312 22.507812 7.792969 22.507812 7.777344 C 22.0625 7.753906 22.105469 6.261719 21.949219 5.640625 Z M 21.949219 5.636719 "/>
<path style=" stroke:none;fill-rule:nonzero;fill:rgb(10.980392%,54.11765%,25.882354%);fill-opacity:1;" d="M 22.992188 8.082031 C 22.980469 8.121094 22.921875 8.136719 22.863281 8.117188 C 22.804688 8.097656 22.769531 8.054688 22.78125 8.015625 C 22.792969 7.976562 22.851562 7.960938 22.910156 7.980469 C 22.96875 8 23.003906 8.046875 22.992188 8.082031 "/>
<path style=" stroke:none;fill-rule:nonzero;fill:rgb(100%,100%,100%);fill-opacity:1;" d="M 4.703125 8.003906 L 4.386719 7.703125 L 4.0625 8 L 4.097656 7.558594 L 3.664062 7.488281 L 4.027344 7.242188 L 3.8125 6.855469 L 4.230469 6.988281 L 4.390625 6.578125 L 4.550781 6.992188 L 4.96875 6.867188 L 4.746094 7.246094 L 5.109375 7.5 L 4.675781 7.5625 Z M 4.703125 8.003906 "/>
<path style=" stroke:none;fill-rule:nonzero;fill:rgb(100%,100%,100%);fill-opacity:1;" d="M 5.835938 11.664062 L 5.488281 11.433594 L 5.15625 11.679688 L 5.273438 11.285156 L 4.933594 11.046875 L 5.351562 11.035156 L 5.476562 10.640625 L 5.613281 11.03125 L 6.03125 11.027344 L 5.699219 11.273438 L 5.832031 11.664062 Z M 5.835938 11.664062 "/>
<path style=" stroke:none;fill-rule:nonzero;fill:rgb(100%,100%,100%);fill-opacity:1;" d="M 4.765625 14.824219 L 4.449219 14.519531 L 4.125 14.816406 L 4.160156 14.375 L 3.726562 14.304688 L 4.089844 14.058594 L 3.875 13.671875 L 4.292969 13.808594 L 4.453125 13.394531 L 4.613281 13.808594 L 5.03125 13.683594 L 4.808594 14.0625 L 5.171875 14.316406 L 4.738281 14.378906 Z M 4.765625 14.824219 "/>
<path style=" stroke:none;fill-rule:nonzero;fill:rgb(100%,100%,100%);fill-opacity:1;" d="M 1.902344 11.125 L 1.582031 10.824219 L 1.261719 11.121094 L 1.296875 10.679688 L 0.863281 10.609375 L 1.226562 10.363281 L 1.011719 9.976562 L 1.425781 10.109375 L 1.589844 9.699219 L 1.746094 10.113281 L 2.164062 9.988281 L 1.945312 10.367188 L 2.304688 10.621094 L 1.871094 10.683594 Z M 1.902344 11.125 "/>
<path style=" stroke:none;fill-rule:nonzero;fill:rgb(100%,100%,100%);fill-opacity:1;" d="M 7.414062 10.160156 L 7.09375 9.855469 L 6.773438 10.152344 L 6.808594 9.710938 L 6.375 9.640625 L 6.738281 9.394531 L 6.523438 9.007812 L 6.941406 9.144531 L 7.101562 8.730469 L 7.261719 9.144531 L 7.675781 9.019531 L 7.457031 9.398438 L 7.816406 9.652344 L 7.386719 9.714844 Z M 7.414062 10.160156 "/>
</g>
</svg>

<svg xmlns="http://www.w3.org/2000/svg" width="25" height="px" viewBox="0 0 25 19"><path d="M0 0h25v19H0z" style="fill:#0021ad;fill-opacity:1;stroke:none"/><path d="M0 0h25v19Zm0 0" style="stroke:none;fill-rule:nonzero;fill:#1c8a42;fill-opacity:1"/><path d="M14.758 9.5c0-1.262-1.012-2.29-2.258-2.29s-2.258 1.028-2.258 2.29 1.012 2.29 2.258 2.29 2.258-1.028 2.258-2.29m0 0" style="stroke:none;fill-rule:nonzero;fill:#ffc639;fill-opacity:1"/><path d="M11.121 8.473c.156.214.39.574.578.48.145 0 .223.012.242.113.496.047.985-.168 1.29-.566 0 0 .03 0 .019-.18 0-.078.11-.062.11-.039.015.04.015.067.035.07.039-.015.105-.117.156-.18a.3.3 0 0 0 .008-.097c.027-.066.093-.05.109-.015l.023.062c.07.05.196 0 .204 0 .011-.055.046-.047.046-.047.047-.011.028-.008.059.008-.027.305.059.316.05.477.005.171-.05.222-.05.289.016.078.273.082.18.152-.078.04 0 .121-.117.152-.344.176-.407.328-.407.328s-.086.165-.097.165c-.059.113-.13.05-.172.105-.02.066-.04.219 0 .293.02.105 0 .164-.028.273-.023.22-.109.258-.12.332-.04.086.007.473-.032.473-.254.008-.45-.047-.55-.066.097-.43.058-.805.058-.848-.024-.309-.453-.23-.52-.277-.054-.008-.09-.051-.105-.07-.063-.008-.086-.024-.145-.028-.03.016-.011.031-.078.05-.176.02-.25-.148-.25-.148.008-.058-.387.012-.597-.039-.09.051-.13.196-.2.211 0 .047-.117-.039-.14-.078-.008-.133.11-.191.11-.191.093-.067.148-.078.194-.121.02-.114.008-.2.059-.282.039-.066.098-.039.137-.062.043-.031.062-.223.023-.277l-.183-.168c-.055-.16.066-.27.101-.254" style="stroke:none;fill-rule:nonzero;fill:#1c8a42;fill-opacity:1"/><path d="M21.95 5.637c-.102-.407-1.016-1.293-1.708-1.856-.164-.113-.273-.043-.25.117.086.145.149.301.235.45.023.097.07.164.093.261 0 0 .008.164.024.18.21.238.242.441.242.441q.166.353.45.618c.241.152.062.632.07.89 0 .157-.114.14-.215.117-.786-.73-1.567-.73-2.258-.945-.266-.027-.274.102-.184.172.43.488.95.887 1.528 1.172l.3.191.344.29c.266.175.285.331.285.347.008.324-.164.578-.215.684-.09.343-.273.402-.273.402-1.469 1.004-2.242 1.266-4.625.953-.04-.016-.266.02 0 .117.605.207 2.098.535 3.539-.156.352-.246.578-.168.832-.316.356-.223.727-.43 1.106-.61.324-.18 1.222-.37 1.43-.547.238-.02.484-.05.5-.257.077-.051.195-.012.28-.18.188-.04.157-.106.157-.106-.047-.132-.227-.187-.352-.289-.187-.062-.312-.078-.45-.015l-.128.058s-.2-.027-.2-.043c-.445-.023-.402-1.515-.558-2.136Zm0 0" style="stroke:none;fill-rule:nonzero;fill:#ffc639;fill-opacity:1"/><path d="M22.992 8.082c-.012.04-.07.055-.129.035s-.093-.062-.082-.101c.012-.04.07-.055.13-.036.058.02.093.067.081.102" style="stroke:none;fill-rule:nonzero;fill:#1c8a42;fill-opacity:1"/><path d="m4.703 8.004-.316-.3L4.063 8l.035-.441-.434-.07.363-.247-.215-.387.418.133.16-.41.16.414.419-.125-.223.38.363.253-.433.063ZM5.836 11.664l-.348-.23-.332.246.117-.395-.34-.238.419-.012.125-.394.136.39.418-.004-.332.246.133.391ZM4.766 14.824l-.317-.304-.324.296.035-.441-.433-.07.363-.246-.215-.387.418.137.16-.414.16.414.418-.125-.222.379.363.253-.434.063ZM1.902 11.125l-.32-.3-.32.296.035-.441-.434-.07.364-.247-.215-.386.414.132.164-.41.156.414.418-.125-.219.38.36.253-.434.063ZM7.414 10.16l-.32-.305-.32.297.035-.441-.434-.07.363-.246-.215-.387.418.137.16-.415.16.415.415-.125-.219.378.36.254-.43.063Zm0 0" style="stroke:none;fill-rule:nonzero;fill:#fff;fill-opacity:1"/></svg>
